X:49
T:Punainen Mokki
M:4/4
L:1/4
Q:1/4=240
S:The Red Cottage
R:humppa
K:D
"A7" F G | "D" A2 d F | "A7" A A G E | "D" D2 F D | A,3 F |
"A7" E E G E | C3 G | "D" F F A F | "A7" E2 F G | !
"D" A2 d F | "A7" A A G E | "D" D2 F E | D3 F |
"E7" E2 "A" A c | "E7" e e d B | "A7" A2 "E7" c B | "A" A3 "A7" ^A | !
"G" B2 G>B | e d c B | "D" A2 F>A | d c B A |
"A7" G2 E>G | c B A G | "D" F F A F | "A7" E2 F G | !
"D" A2 d F | "A7" A A G E | "D" D2 F A | "E7" d2 e d |
"D" A2 d F | "A7" A A G E | "D" (D4 | D) z ||
